packages/ui-icons/svg/Line/highlighter.svg

<svg viewBox="0 0 1920 1920" version="1.1" xmlns="http://www.w3.org/2000/svg">
    <path d="M1809.88836,1806.67411 L1809.88836,1920 L110,1920 L110,1806.67411 L1809.88836,1806.67411 Z M477.538529,1391.22139 L621.009106,1486.86845 L560.719733,1580.02233 L326.815094,1580.02233 L477.538529,1391.22139 Z M616.816048,921.93888 L1006.77044,1182.13513 L974.019256,1233.58508 C958.266957,1260.66997 928.008944,1274.94903 898.770865,1269.62271 C826.015643,1256.70356 752.580466,1287.98151 711.10319,1350.42407 L683.111695,1392.128 L544.287478,1299.42742 L572.165648,1257.61017 C613.756249,1195.28093 614.662857,1115.0462 574.432165,1053.39691 C558.226563,1028.46522 559.926451,994.920754 578.058594,971.008991 L616.816048,921.93888 Z M1295.41148,118.911619 L1537.92889,280.740991 C1554.02116,291.50695 1558.32755,314.058803 1549.03483,330.264405 L1067.62644,1086.6014 L687.418078,832.86473 L1244.18818,129.677578 C1256.65403,113.018672 1279.20588,108.145659 1295.41148,118.911619 Z M312.649358,1693.34822 L622.482343,1693.34822 L745.667586,1502.62074 L805.390331,1413.20662 C821.822585,1388.6149 850.494035,1375.80907 878.032227,1381.02206 C954.527203,1395.30113 1032.15544,1358.92352 1070.68624,1292.62787 L1645.92846,389.080542 C1686.27248,319.385119 1666.55377,230.424295 1600.93808,186.45385 L1358.19403,24.6244777 C1292.57833,-19.0059902 1202.82423,-3.14036549 1154.66073,60.2088074 L488.53114,901.653546 C440.82094,964.436089 437.194512,1050.33711 479.578395,1115.15952 C494.87739,1138.84464 494.197435,1170.12258 477.878506,1194.82763 L419.628999,1282.08856 L229.468154,1520.52624 C203.629851,1552.82411 198.756838,1596.00128 216.662328,1633.17217 C234.567819,1670.22974 271.398734,1693.34822 312.649358,1693.34822 L312.649358,1693.34822 Z" stroke="none" stroke-width="1" fill-rule="evenodd"/>
</svg>

<svg viewBox="0 0 1920 1920" version="1.1" xmlns="http://www.w3.org/2000/svg">
    <path d="M110 1920v-113.326h1699.888V1920H110zm367.539-528.779l143.47 95.647-60.29 93.154H326.816l150.724-188.8zm94.627-133.61c41.59-62.33 42.497-142.565 2.266-204.214-16.205-24.932-14.506-58.476 3.627-82.388l38.757-49.07 389.954 260.196-32.75 51.45c-15.753 27.085-46.011 41.364-75.25 36.038-72.754-12.92-146.19 18.359-187.667 80.801l-27.991 41.704-138.825-92.7 27.879-41.818zm672.022-1127.933c12.466-16.66 35.018-21.532 51.223-10.766L1537.93 280.74c16.092 10.766 20.399 33.318 11.106 49.523l-481.409 756.337-380.208-253.736 556.77-703.187zM312.65 1693.348h309.833l123.186-190.727 59.722-89.414c16.433-24.592 45.104-37.398 72.642-32.185 76.495 14.28 154.123-22.098 192.654-88.394l575.242-903.547c40.344-69.696 20.626-158.657-44.99-202.627l-242.744-161.83c-65.616-43.63-155.37-27.764-203.533 35.585L488.53 901.654c-47.71 62.782-51.336 148.683-8.953 213.506 15.3 23.685 14.62 54.963-1.7 79.668l-58.249 87.26-190.16 238.438c-25.84 32.298-30.712 75.475-12.807 112.646 17.906 37.058 54.737 60.176 95.987 60.176z" stroke="none" stroke-width="1" fill-rule="evenodd"/>
</svg>
